src/assets/svgs/footer/github.svg

<svg fill="none" height="17" viewBox="0 0 18 17" width="18" xmlns="http://www.w3.org/2000/svg"><path d="m8.81389 0c-4.69635 0-8.500169 3.90255-8.500169 8.71559 0 3.85161 2.435169 7.11771 5.811989 8.26931.42501.0822.58073-.1877.58073-.4192 0-.2068-.00697-.7553-.01062-1.4818-2.36444.5256-2.86316-1.1693-2.86316-1.1693-.38683-1.0058-.94565-1.275-.94565-1.275-.76999-.5401.05944-.529.05944-.529.85367.0606 1.30192.898 1.30192.898.75804 1.3325 1.9899.9476 2.47567.7251.07637-.564.29552-.9475.53823-1.1654-1.88763-.218-3.87189-.9677-3.87189-4.30692 0-.95138.32938-1.72884.87492-2.33861-.09563-.22035-.38251-1.1066.07438-2.30675 0 0 .71189-.23351 2.33754.89353.68002-.19367 1.40253-.28964 2.12505-.29415.72251.00451 1.44503.10048 2.12503.29415 1.615-1.12704 2.3269-.89353 2.3269-.89353.4569 1.20049.17 2.0864.085 2.30675.5419.60977.8713 1.38723.8713 2.33861 0 3.34822-1.9869 4.08512-3.8782 4.29962.2975.2616.5738.7961.5738 1.6128 0 1.1661-.0107 2.1033-.0107 2.3867 0 .2283.1488.501.5844.4141 3.4007-1.1441 5.8339-4.4126 5.8339-8.25831.0004-4.81374-3.8055-8.71629-8.49981-8.71629z" fill="#fff8f3"/></svg>

<svg xmlns="http://www.w3.org/2000/svg" width="18" height="17" viewBox="0 0 18 17" fill="none">
  <path d="M8.81389 0C4.11754 0 0.313721 3.90255 0.313721 8.71559C0.313721 12.5672 2.74889 15.8333 6.12571 16.9849C6.55072 17.0671 6.70644 16.7972 6.70644 16.5657C6.70644 16.3589 6.69947 15.8104 6.69582 15.0839C4.33138 15.6095 3.83266 13.9146 3.83266 13.9146C3.44583 12.9088 2.88701 12.6396 2.88701 12.6396C2.11702 12.0995 2.94645 12.1106 2.94645 12.1106C3.80012 12.1712 4.24837 13.0086 4.24837 13.0086C5.00641 14.3411 6.23827 13.9562 6.72404 13.7337C6.80041 13.1697 7.01956 12.7862 7.26227 12.5683C5.37464 12.3503 3.39038 11.6006 3.39038 8.26138C3.39038 7.31 3.71976 6.53254 4.2653 5.92277C4.16967 5.70242 3.88279 4.81617 4.33968 3.61602C4.33968 3.61602 5.05157 3.38251 6.67722 4.50955C7.35724 4.31588 8.07975 4.21991 8.80227 4.2154C9.52478 4.21991 10.2473 4.31588 10.9273 4.50955C12.5423 3.38251 13.2542 3.61602 13.2542 3.61602C13.7111 4.81651 13.4242 5.70242 13.3392 5.92277C13.8811 6.53254 14.2105 7.31 14.2105 8.26138C14.2105 11.6096 12.2236 12.3465 10.3323 12.561C10.6298 12.8226 10.9061 13.3571 10.9061 14.1738C10.9061 15.3399 10.8954 16.2771 10.8954 16.5605C10.8954 16.7888 11.0442 17.0615 11.4798 16.9746C14.8805 15.8305 17.3137 12.562 17.3137 8.71629C17.3141 3.90255 13.5082 0 8.81389 0Z" fill="#FFF8F3"/>
</svg>
